X:1
T:Faraway
C:Pete Jung, abc file by Bernard Loffet
L:1/8
Q:240
M:3/4
K:C
z4EG|:[A2A,2][AA,]G[AA,]c|[BG,]G[E2G,2][EG,]G|[A2A,2][AA,]G[AA,]d|[B2G,2]G,G[cG,]B|[A2F,2]F,G[AF,]c|[BE,]A[G2E,2][cE,]d|1[eC,]d[cC,]B[AG,]G|[A2D,2][AD,]G[ED,]G:|2[eC,]d[cC,]B[AG,]G| \
[A2A,2][AA,]B[cA,]d|:[e2C,2][eC,]d[eC,]g|[dG,]B[GG,]B[cG,]d|[e2C,2][eC,]d[eC,]g|[d2G,2]G,G[cG,]d|[eA,]cA[dG,]BG|[cF,]AF[cF,]AF|[E2E,2][A2A,2][AA,]G|1[A2A,2]A,B[cA,]d:|2[A2A,2][AA,]G[EA,]G| \
K:G
Z:Created with TablEdit http://www.tabledit.com/ by Bernard Loffet
